X: 35133
T: Romance
R: waltz
M: 3/4
K: Amajor
V:1
E|"A"c2 c3c|"A"c2 B3A|"E"A2 G3G/F/|"E"G2 G2 FE|
V:2
z|A2 A3A|A2 G3F|F2 E3E/F/|E2 E2 E2|
V:1
"E7"f2 f3 f/e/|"E7/G#"f2 g3f|"A"f2 e2 e2|"A"e2 f2 g2|
V:2
d2 d3d/c/|d2 e3d|d2 c2 cB|c2 d2 e2|
V:1
"A/C#"a2 a2 a2|"C#7"a2 a2 (3gfe|"D"f2 f3g|"D#"f2"A/C"e3"D/E"d|
V:2
c2 c2 c2|c2 c2 ec|d2 d3e|d2 c3B|
V:1
"A/E"c2 c3c|"E7"c2 d2 B2|"A"A2 A2 A2|"A"A2 A2 A2:|
V:2
E2 e3e|e2 f2 d2|c2 c2 c2|c2 c2 c2:|

